X: 1
T: Glengarra Wood
M: 6/8
L: 1/8
R: jig
K: Gmaj
|:GBd gba|gdB {d}c2e|dcB {d}c2e|dcB A2D|
GBd gba|gdB {d}c2f|gdB cAF|AGF G2D:|
|:gba gdB|ecA dBG|DEG ~B3|edB A2d|
gba gdB|ecA dBG|cec BdB|DFA G2D:|
